Sources/FrostedUI/Resources/Icons.xcassets/xDotComSize16.imageset/x-dot-com-size-16.svg

<svg
  width="16"
  height="16"
  viewBox="0 0 16 16"
  fill="none"
  xmlns="http://www.w3.org/2000/svg"
  data-fui-icon="true"
>
  <path
    d="M11.6022 2.33334H13.5235L9.326 7.13401L14.264 13.6667H10.3976L7.36934 9.70468L3.90425 13.6667H1.98179L6.4714 8.53181L1.73438 2.33334H5.69893L8.43627 5.95478L11.6022 2.33334ZM10.9279 12.5159H11.9925L5.12045 3.42367H3.97801L10.9279 12.5159Z"
    fill="currentColor"
  />
</svg>

<svg xmlns="http://www.w3.org/2000/svg" width="16" height="16" fill="none" data-fui-icon="true" viewBox="0 0 16 16"><path fill="currentColor" d="M11.602 2.333h1.922L9.326 7.134l4.938 6.533h-3.866L7.369 9.705l-3.465 3.962H1.982l4.49-5.135-4.738-6.199H5.7l2.737 3.622zm-.674 10.183h1.064L5.12 3.424H3.978z"/></svg>
